X:1
T:Father, We Give Thanks, Who Planted
T:Tune: Genevan Psalter, 1551; harm. Pilgrim Hymnal, 1931 Text under copyright; for copyrighted material see Psalter Hymnal 314
T:98 98 D GENEVAN 98/118 www.hymnary.org/text/father_we_thank_thee_who_hast_planted
T:Father, We Give Thanks, Who Planted
T:This tune is in the public domain. You may freely use this score for personal and congregational worship. If you reproduce the score, please credit Hymnary.org as the source. 
T:This tune is in the public domain. You may freely use this score for personal and congregational worship. If you reproduce the score, please credit Hymnary.org as the source. 
T:This tune is in the public domain. You may freely use this score for personal and congregational worship. If you reproduce the score, please credit Hymnary.org as the source. 
Z:This tune is in the public domain. You may freely use this score for personal and congregational worship. If you reproduce the score, please credit Hymnary.org as the source.
%%score ( 1 2 ) ( 3 4 )
L:1/8
M:12/4
K:F
V:1 treble nm="SOPRANO ALTO" snm="S. A."
V:2 treble 
V:3 bass nm="Bass" snm="B."
V:4 bass 
V:1
 F4 D2 C2 F2 F2 G2 B2 A4 G4 | c4 | A2 A2 F2 B2 A4 G4 F8 | F4 D2 C2 F2 F2 | G2 B2 A4 G4 | %5
 c4 B2 A2 G2 F2 F2 E2 F8 |1 c4 c2 B2 A4 G4 F2 E2 D4 C4 | C4 || %8
"^Page 2" F2 F2 E2 D2 F4 G4"^Father, We Give You Thanks, Who Planted" A8 | =F4 F2 G2 A2 F2 | %10
 B2 B2 A4 G4 | c4 B2 A2 G2 F2 F2 E2 F8 |] %12
V:2
 (A,2 C2) B,2 G,2 C2 D2 D2 D2 F4 E4 | E4 | E2 E2 F2 G2 (F2 D2) E4 F8 | A,4 B,2 G,2 C2 D2 | %4
 E2 F2 F4 E4 | F4 E2 F2 D2 D2 C2 C2 C8 |1 F4 F2 E2 (C2 D2) E4 D2 C2 (C2 =B,2) C4 | G,4 || %8
 C2 D2 C2 A,2 D6 E2 ^F8 | D4 D2 C2 C2 D2 | D3 E ^F4 (D2 E2) | =F4 F2 F2 D2 D2 C2 C2 C8 |] %12
V:3
 F,4 F,2 E,2 F,2 A,2 B,2 B,2 (C2 D2) G,4 | A,4 | A,2 A,2 A,2 D2 C6 B,2 A,8 | F,4 F,2 E,2 F,2 A,2 | %4
 C2 D2 C4 C4 | A,4 B,2 C2 B,2 A,2 G,2 G,2 A,8 |1 A,4 A,2 B,2 F,4 C4 A,2 G,2 (A,2 G,2) E,4 | E,4 || %8
 F,2 B,2 G,2 F,2 F,4 B,4 A,8 | A,4 A,2 G,2 F,2 A,2 | D2 D2 (D2 C2) B,4 | %11
 C4 D2 C2 B,2 A,2 G,2 G,2 A,8 |] %12
V:4
 (F,,2 A,,2) B,,2 C,2 A,,2 D,2 B,,2 G,,2 (A,,2 B,,2) C,4 | A,,4 | %2
 C,2 C,2 D,2 G,,2 (A,,2 B,,2) C,4 F,,8 | (D,2 C,2) B,,2 B,,2 A,,2 D,2 | C,2 B,,2 (F,,2 A,,2) C,4 | %5
 F,,4 G,,2 A,,2 B,,2 B,,2 C,2 C,2 F,,8 |1 F,,4 F,,2 G,,2 (A,,2 B,,2) C,4 D,2 E,2 (F,2 G,2) C,4 | %7
 C,4 || A,,2 B,,2 C,2 D,2 (B,,2 A,,2) G,,4 D,8 | D,4 D,2 E,2 F,2 D,2 | B,,3 C, D,4 G,,4 | %11
 A,,4 B,,2 F,,2 G,,2 A,,B,, C,2 C,2 F,,8 |] %12

